X:1
T: Craiglash
C:C Sherrit
R:Reel
Q: 232
K:D
M:4/4
L:1/8
ag|:fd df A2 fd|ce ag fd dc|BG GB e2 gf|eB ed cA ag|
fd df A2 fd|ce ag fd dc|B2 GB e2 ge|1ce Ac d2 ag:|2ce Ac d2 de|
|:fd df a2 fd|cg fe fd dc|B2 ef g2 ed|ce dB cA ag|
fd df a2 fd|cg fe fd dc|B2 GB e2 ge|1ce Ac d2 de:|2ce Ac d2||
